lib/flags/m/780.svg

<svg xmlns="http://www.w3.org/2000/svg" fill="none" viewBox="0 0 20 15"><mask id="780_svg__a" width="20" height="15" x="0" y="0" mask-type="alpha" maskUnits="userSpaceOnUse"><path fill="#fff" d="M0 0H20V15H0z"/></mask><g mask="url(#780_svg__a)"><path fill="#E31D1C" fill-rule="evenodd" d="M0 0V15H20V0H0Z" clip-rule="evenodd"/><mask id="780_svg__b" width="20" height="15" x="0" y="0" mask-type="alpha" maskUnits="userSpaceOnUse"><path fill="#fff" fill-rule="evenodd" d="M0 0V15H20V0H0Z" clip-rule="evenodd"/></mask><g mask="url(#780_svg__b)"><path fill="#272727" stroke="#F7FCFF" stroke-width=".915" d="M18.4675 18.4262L18.1364 18.697L17.844 18.3848L-1.12108 -1.86437L-1.45555 -2.22149L-1.07679 -2.53125L0.858424 -4.11395L1.18956 -4.38477L1.48197 -4.07255L20.447 16.1766L20.7815 16.5338L20.4028 16.8435L18.4675 18.4262Z"/></g></g></svg>

<svg xmlns="http://www.w3.org/2000/svg" fill="none" viewBox="0 0 20 15"><mask id="780_svg__a" width="20" height="15" x="0" y="0" maskUnits="userSpaceOnUse"><path fill="#fff" d="M0 0h20v15H0z"/></mask><g mask="url(#780_svg__a)"><path fill="#E31D1C" fill-rule="evenodd" d="M0 0v15h20V0H0z" clip-rule="evenodd"/><mask id="780_svg__b" width="20" height="15" x="0" y="0" maskUnits="userSpaceOnUse"><path fill="#fff" fill-rule="evenodd" d="M0 0v15h20V0H0z" clip-rule="evenodd"/></mask><g mask="url(#780_svg__b)"><path fill="#272727" stroke="#F7FCFF" stroke-width=".915" d="M18.468 18.426l-.332.271-.292-.312-18.965-20.25-.335-.357.38-.31L.857-4.113l.332-.27.292.311 18.965 20.25.335.357-.38.31-1.934 1.582z"/></g></g></svg>
